icons/svg/wan.svg

﻿<?xml version="1.0" encoding="utf-8"?>
<!DOCTYPE svg PUBLIC "-//W3C//DTD SVG 1.1//EN" "http://www.w3.org/Graphics/SVG/1.1/DTD/svg11.dtd">
<svg xmlns="http://www.w3.org/2000/svg" xmlns:xlink="http://www.w3.org/1999/xlink" version="1.1" baseProfile="full" width="24" height="24" viewBox="0 0 24.00 24.00" enable-background="new 0 0 24.00 24.00" xml:space="preserve">
	<path fill="#000000" fill-opacity="1" stroke-width="1.33333" stroke-linejoin="miter" d="M 12,2C 7.58172,2 4,5.5817 4,10C 4.00479,14.028 7.0036,17.4242 11,17.9277L 11,19L 10,19C 9.44772,19 9,19.4477 9,20L 2,20L 2,22L 9,22C 9,22.5523 9.44772,23 10,23L 14,23C 14.5523,23 15,22.5523 15,22L 22,22L 22,20L 15,20C 15,19.4477 14.5523,19 14,19L 13,19L 13,17.9297C 16.9971,17.4261 19.9962,14.0287 20,10C 20,5.5817 16.4183,2 12,2 Z M 12,4C 12,4 12.7381,5.2819 13.2559,7L 10.7441,7C 11.2619,5.2819 12,4 12,4 Z M 9.76953,4.4336C 9.51293,4.9321 9.0948,5.8364 8.74414,7L 6.81055,7C 7.48201,5.8376 8.52388,4.934 9.76953,4.4336 Z M 14.2305,4.4355C 15.4751,4.9358 16.5162,5.8387 17.1875,7L 15.2559,7C 14.9058,5.8383 14.4873,4.9347 14.2305,4.4355 Z M 6.08984,9L 8.31641,9C 8.27762,9.3309 8.25,9.6649 8.25,10C 8.25,10.3351 8.27762,10.6691 8.31641,11L 6.08594,11C 6.02941,10.6697 6.00067,10.3351 6,10C 6.00196,9.6647 6.03201,9.3302 6.08984,9 Z M 10.3164,9L 13.6836,9C 13.7224,9.3309 13.75,9.6649 13.75,10C 13.75,10.3351 13.7224,10.6691 13.6836,11L 10.3164,11C 10.2776,10.6691 10.25,10.3351 10.25,10C 10.25,9.6649 10.2776,9.3309 10.3164,9 Z M 15.6836,9L 17.9141,9C 17.9706,9.3303 17.9993,9.6649 18,10C 17.998,10.3353 17.968,10.6698 17.9102,11L 15.6836,11C 15.7224,10.6691 15.75,10.3351 15.75,10C 15.75,9.6649 15.7224,9.3309 15.6836,9 Z M 6.8125,13L 8.74414,13C 9.09421,14.1617 9.5127,15.0653 9.76953,15.5644C 8.5249,15.0642 7.4838,14.1613 6.8125,13 Z M 10.7441,13L 13.2559,13C 12.7381,14.7181 12,16 12,16C 12,16 11.2619,14.7181 10.7441,13 Z M 15.2559,13L 17.1895,13C 16.518,14.1624 15.4761,15.066 14.2305,15.5664C 14.4871,15.0679 14.9052,14.1636 15.2559,13 Z "/>
</svg>

<svg xmlns="http://www.w3.org/2000/svg" version="1.1" baseProfile="full" width="24" height="24" viewBox="0 0 24.00 24.00" xml:space="preserve"><path fill="#000" fill-opacity="1" stroke-width="1.333" stroke-linejoin="miter" d="M12 2c-4.418 0-8 3.582-8 8 .005 4.028 3.004 7.424 7 7.928V19h-1c-.552 0-1 .448-1 1H2v2h7c0 .552.448 1 1 1h4c.552 0 1-.448 1-1h7v-2h-7c0-.552-.448-1-1-1h-1v-1.07c3.997-.504 6.996-3.9 7-7.93 0-4.418-3.582-8-8-8zm0 2s.738 1.282 1.256 3h-2.512C11.262 5.282 12 4 12 4zm-2.23.434C9.513 4.932 9.095 5.836 8.744 7H6.81c.672-1.162 1.714-2.066 2.96-2.566zm4.46.002c1.245.5 2.286 1.403 2.957 2.564h-1.93c-.35-1.162-.77-2.065-1.027-2.564zM6.09 9h2.226c-.038.33-.066.665-.066 1 0 .335.028.67.066 1h-2.23C6.03 10.67 6 10.335 6 10c.002-.335.032-.67.09-1zm4.226 0h3.368c.038.33.066.665.066 1 0 .335-.028.67-.066 1h-3.368c-.038-.33-.066-.665-.066-1 0-.335.028-.67.066-1zm5.368 0h2.23c.057.33.085.665.086 1-.002.335-.032.67-.09 1h-2.226c.038-.33.066-.665.066-1 0-.335-.028-.67-.066-1zm-8.871 4h1.93c.35 1.162.77 2.065 1.027 2.564-1.245-.5-2.286-1.403-2.957-2.564zm3.93 0h2.513C12.738 14.718 12 16 12 16s-.738-1.282-1.256-3zm4.513 0h1.933c-.672 1.162-1.714 2.066-2.96 2.566.257-.498.675-1.402 1.026-2.566z"/></svg>
